!!!OTL: 625. Des Kindes Engel.
!!!COM: K. G. Glaeser
!!!ARE: Europa, Mitteleuropa, Deutschland
!!!SCT: B0625
!!!TXL: @@DE
!!!YEM: Copyright 1995, estate of Helmut Schaffrath.
**kern	**text
*ICvox	*
*Ivox	*
*clefG2	*
*M4/4	*
*met(c)	*
*k[b-]	*
*F:	*
!LO:TX:a:t=Lieblich.	!
{4cc	Es
=1	=1
4a	geht
4cc	durch
4a	al-
4cc	-le
=2	=2
2ff	Lan-
4cc}	-de
{4cc	ein
=3	=3
4dd	En-
4cc	-gel
4b-	ſtill
4a	um-
=4	=4
2g	-her;
4r}	.
{4cc	kein
=5	=5
4a	Au-
4cc	-ge
4a	kann
4cc	ihn
=6	=6
2ff	ſe-
4ee}	-hen,
{4ee	doch
=7	=7
4ff	al-
4dd	-les
4cc	ſie-
4bn	-het
=8	=8
2cc	er.
4r}	.
{4cc	Der
=9	=9
4.ff	Him-
8cc	-mel
4a	iſt
4f	ſein
=10	=10
4.dd	Va-
8b-	-ter-
4b-}	-land,
{4dd	vom
=11	=11
4cc	lie-
4b-/	-ben
4a	Gott
4g	iſt
=12	=12
[2cc	er
8ccL]	.
8b-J	.
8gL	ge-
8aJ	.
=13	=13
2f	-ſandt.
4r}	.
==	==
!!!AGN: Kinder -, Wiegen - Lied
!!!GTL: Kinderlieder
!!!ONB: ESAC (Essen Associative Code) Database: BOEHME
!!!AMT: simple quadruple
!!!AIN: vox
!!!EED: Helmut Schaffrath
!!!EEV: 1.0
!!@@COMMENT:"Gedicht von C. L. Th. Lieth (Lehrer). Aus deſſen "Kindergedichte für das ʒarte Alter". Eſſen 1624."
!!@@END:
!!!Text: C. L. Th. Lieth
!!!URL-scan: https://archive.org/details/BoehmeVtLieder1895/page/n493/mode/2up
!!!ENC: Anna Maria Matuszewska
!!!EEV: 2024/15/07
*-	*-
